X: 2
T: Lurgy, The
M: 4/4
L: 1/8
R: hornpipe
K: Gmaj
|: cA |\
GDBG dBgf | fee^d e2 AG | FDAF dAfe | ed ^ce d=cBA |
GDBG dBgf | fee^d e2 ef | gage dBge | dBcA G2 :|
|: AF |\
E^DEF GFGA | B^AB^d e2 fe | dAFE DEFD | E^DEB A^GAF | 
E^DEF GFGA | BGBd g2 ag | fecA fecA | dBcA G2 :|
